X: 174
T: 1re Etude.	 Op. 25
C: Fryderyk Chopin
%%abc-version 2.0
%%abcx-abcm2ps-target-version 5.9.1 (29 Sep 2008)
%%abc-creator hum2abc beta
%%abcx-conversion-date 2021/10/03 11:23:51
%%abc-edited-by Mateusz Mrugas
%%abc-edited-by Jędrzej Mróz
%%abc-edited-by Tomasz Sierawski
%%abcx-initial-encoding-date 2018-09-30
%%humdrum-veritas 2717134299
%%humdrum-veritas-data 4245434519
%%linebreak <none>
%%barnumbers 0
L: 1/16
M: C
N: Derived from 025_1-6-1d-BH-001.krn
P: Douze Etudes
Q: "(M.M. [quarter] = 104.)" 1/4=104
%%staves {1 2}
V: 1 clef=treble
V: 2 clef=bass
K: Ab
[V:1] e4 [I:setbarnb 1]| 
[V:2] z4 | 
[V:1] (3:2:6eAcEAc (3:2:6eAcEAc (3:2:6eAcEAc (3:2:6eAcEAc | 
[V:2] (3:2:6A,,,E,A,CA,E, (3:2:6A,,E,A,CA,E, (3:2:6A,,E,A,CA,E, (3:2:6A,,E,A,CA,E, | 
[V:1] (3:2:6fAcEAc (3:2:6eAcEAc (3:2:6eAcEAc (3:2:6eAcEAc | 
[V:2] (3:2:6A,,E,A,CA,E, (3:2:6A,,E,A,CA,E, (3:2:6A,,E,A,CA,E, (3:2:6A,,E,A,CA,E, | 
[V:1] (3:2:6eBdEBd (3:2:6eBdEBd (3:2:6fBdEBd (3:2:6eBdEBd | 
[V:2] (3:2:6A,,E,G,DG,E, (3:2:6A,,E,G,DG,E, (3:2:6A,,E,G,DG,E, (3:2:6A,,E,G,DG,E, | 
[V:1] (3:2:6bceEce (3:2:6aceEce (3:2:6ac=e=Ece (3:2:6aceEce | 
[V:2] (3:2:6A,,E,A,CA,E, (3:2:6A,,E,A,CA,E, (3:2:6A,,=E,A,CA,E, (3:2:6A,,E,A,CA,E, | 
[V:1] (3:2:6adfAdf (3:2:6adfAdf (3:2:6adfAdf (3:2:6bdfGdf | 
[V:2] (3:2:6D,,A,DFDA, (3:2:6D,A,DFDA, (3:2:6D,A,DFDA, (3:2:6D,G,DFDG, | 
[V:1] (3:2:6c'cfGcf (3:2:6bc=eGce (3:2:6acfAcf (3:2:6f_c_eFce | 
[V:2] (3:2:6C,G,CFCG, (3:2:6C,G,C=ECG, (3:2:6F,A,CFCA, (3:2:6!accent!_C,F,A,_EA,F, | 
[V:1] (3:2:6fBeFBe (3:2:6gBeFBe (3:2:6aB=dFAB (3:2:6BFAB,FA | 
[V:2] (3:2:6B,,F,A,EA,F, (3:2:6B,,F,A,EA,F, (3:2:6B,,F,A,=DA,F, (3:2:6B,,F,A,DA,F, | 
[V:1] (3:2:6BEAB,EA (3:2:6cEAB,EA (3:2:6dEGB,DE (3:2:6EB,DE,B,D | 
[V:2] (3:2:6E,,B,,E,_DE,B,, (3:2:6E,,B,,E,A,E,B,, (3:2:6E,,B,,E,G,E,B,, (3:2:6E,,B,,D,G,D,B,, | 
[V:1] (3:2:6eAcEAc (3:2:6eAcEAc (3:2:6eAcEAc (3:2:6eAcEAc | 
[V:2] (3:2:6A,,,E,A,CA,E, (3:2:6A,,E,A,CA,E, (3:2:6A,,E,A,CA,E, (3:2:6A,,E,A,CA,E, | 
[V:1] (3:2:6fAcEAc (3:2:6eAcEAc (3:2:6eAcEAc (3:2:6eAcEAc | 
[V:2] (3:2:6A,,E,A,CA,E, (3:2:6A,,E,A,CA,E, (3:2:6A,,E,A,CA,E, (3:2:6A,,E,A,CA,E, | 
[V:1] (3:2:6eBdEBd (3:2:6bBdEBd (3:2:6c'BdEBd (3:2:6gBdEBd | 
[V:2] (3:2:6A,,E,G,DG,E, (3:2:6A,,E,G,DG,E, (3:2:6A,,E,G,DG,E, (3:2:6A,,E,G,DG,E, | 
[V:1] (3:2:6bceEce (3:2:6aceEce (3:2:6ac=e=Ece (3:2:6aceEce | 
[V:2] (3:2:6A,,E,A,CA,E, (3:2:6A,,E,A,CA,E, (3:2:6A,,=E,A,CA,E, (3:2:6A,,E,A,CA,E, | 
[V:1] (3:2:6adfAdf (3:2:6adfAdf (3:2:6adfAdf (3:2:6bdfGdf | 
[V:2] (3:2:6D,,A,DFDA, (3:2:6D,A,DFDA, (3:2:6D,A,DFDA, (3:2:6D,G,DFDG, | 
[V:1] (3:2:6c'cfGcf (3:2:6gcfGcf (3:2:6gc=eGce (3:2:6gceGce | 
[V:2] (3:2:6C,G,CFCG, (3:2:6C,G,CFCG, (3:2:6C,G,C=ECG, (3:2:6C,G,CECG, | 
[V:1] (3:2:6g=B=eFBe (3:2:6gB=dFBd (3:2:6gBfFBf (3:2:6gBeFBe | 
[V:2] (3:2:6G,,=D,G,=B,G,D, (3:2:6G,,D,G,B,G,D, (3:2:6G,,D,G,=DG,D, (3:2:6G,,D,G,DG,D, | 
[V:1] (3:2:6!accent!=dFGCFG (3:2:6c=EGCEG (3:2:6c=DGCDG (3:2:6cEGCEG | 
[V:2] (3:2:6C,,G,,C,G,C,G,, (3:2:6C,,G,,C,G,C,G,, (3:2:6C,,G,,C,G,C,G,, (5:4:5C,,G,,C,G,C, | 
[V:1] (3:2:6cGBCGB (3:2:6cGBCGB (3:2:6dGBDGB (3:2:6cGBCGB | 
[V:2] =E,,C,B,C, E,,C,B,C, E,,C,B,C, E,,C,B,C, | 
[V:1] (3:2:6cFBCFB (3:2:6=dFACFA (3:2:6=eGcCGc (3:2:6fAcCAc | 
[V:2] F,,C,B,C, F,,C,A,C, F,,C,G,C, F,,C,F,C, | 
[V:1] (3:2:6_eBdEBd (3:2:6eBdEBd (3:2:6fBdEBd (3:2:6eBdEBd | 
[V:2] G,,E,_DE, G,,E,DE, G,,E,DE, G,,E,DE, | 
[V:1] (3:2:6eAdEAd (3:2:6fAcEAc (3:2:6gAcEAc (3:2:6aAcEAc | 
[V:2] A,,E,DE, A,,E,CE, A,,E,B,E, A,,E,A,E, | 
[V:1] (3:2:6gceGce (3:2:6gceGce (3:2:6ac=dAcd (3:2:6f=BdFBd | 
[V:2] E,,G,CG, C,G,CG, F,,=D,CD, (5:4:5G,,D,=B,G,D, | 
[V:1] (3:2:6=eGc=EGc (3:2:6=d_A=BDAB (3:2:6fA=BFAB (3:2:6eABEAB | 
[V:2] (3:2:6C,=E,G,CG,E, (3:2:6C,F,_A,=B,A,F, (3:2:6C,F,A,=DA,F, (3:2:6C,E,^G,DG,E, | 
[V:1] (3:2:6=eGc=EGc (3:2:6=d^G=B=DGB (3:2:6fGBFGB (3:2:6eGBEGB | 
[V:2] (3:2:6C,=E,G,CG,E, (3:2:6=B,,F,^G,=B,G,F, (3:2:6B,,F,G,=DG,F, (3:2:6B,,E,G,DG,E, | 
[V:1] (3:2:6=e=A^c=EAc (3:2:6=dA=B=DAB (3:2:6^fAB^FAB (3:2:6e^GdEGd | 
[V:2] (3:2:6=A,,=E,=A,^CA,E, (3:2:6A,,^F,A,=B,A,F, (3:2:6A,,F,A,=DA,F, (3:2:6A,,E,^G,DG,E, | 
[V:1] (3:2:6=e=A^c=EAc (3:2:6=aceAce (3:2:6=b^d^fAdf (3:2:6c'_e_g_Aeg | 
[V:2] (3:2:6=A,,=E,=A,^CA,E, (3:2:6A,,E,A,CA,E, (3:2:6A,,^D,^F,=CF,D, (3:2:6_A,,_E,_G,CG,E, | 
[V:1] (3:2:6c'dfFdf (3:2:6bdfFdf (3:2:6d'BdFBd (3:2:6fBdFBd | 
[V:2] (3:2:6D,,A,B,DB,A, (3:2:6D,A,B,DB,A, (3:2:6D,,A,B,DB,A, (3:2:6D,A,B,DB,A, | 
[V:1] (3:2:6bceEce (3:2:6aceEce (3:2:6c'AcEAc (3:2:6eAcEAc | 
[V:2] (3:2:6E,,E,A,CA,E, (3:2:6C,E,A,CA,E, (3:2:6E,,E,A,CA,E, (3:2:6C,E,A,CA,E, | 
[V:1] (3:2:6eGBDGB (3:2:6=eGBDGB (3:2:6fGBDGB (3:2:6_eGBDGB | 
[V:2] (3:2:6E,,E,G,EG,E, (3:2:6B,,E,G,EG,E, (3:2:6E,,E,G,EG,E, (3:2:6B,,E,G,EG,E, | 
[V:1] (3:2:6dFADFA (3:2:6cFACFA (3:2:6cEFCEF (3:2:6c'e!accent!fcef | 
[V:2] F,,F,A,F, (5:4:5C,F,A,F,C, F,,F,=A,F, (5:4:5C,F,A,F,C, | 
[V:1] (3:2:6c'dfFdf (3:2:6bdfFdf (3:2:6d'Bd_FBd (3:2:6_fBdFBd | 
[V:2] (3:2:6B,,,F,B,DB,F, (3:2:6B,,F,B,DB,F, (3:2:6B,,,_F,A,DA,F, (3:2:6B,,F,A,DA,F, | 
[V:1] (3:2:6bceEce (3:2:6aceEce (3:2:6c'AcEAc (3:2:6eAcEAc | 
[V:2] (3:2:6E,,E,A,CA,E, (3:2:6C,E,A,CA,E, (3:2:6E,,E,A,CA,E, (3:2:6C,E,A,CA,E, | 
[V:1] (3:2:6e=AcEAc (3:2:6fAcEAc (3:2:6_gAcEAc (3:2:6fAcEAc | 
[V:2] E,,=A,CA, (5:4:5E,A,CA,E, E,,A,CA, (5:4:5E,A,FA,E, | 
[V:1] (3:2:6fBdDBd (3:2:6gBdFBd (3:2:6a=BdFBd (3:2:6gBdFBd | 
[V:2] E,,B,FB, (5:4:5E,B,DB,E, E,,=B,=DB, (5:4:5E,B,GB,E, | 
[V:1] (3:2:6gceEce (3:2:6aceAce (3:2:6=ace=Ace (3:2:6_g'ac'eac' | 
[V:2] E,,CGC (5:4:5E,CECE, E,,C_GC (5:4:5E,C=AEC | 
[V:1] (3:2:6f'f_aBfa (3:2:6bfaBfa (3:2:6_d'_faBfa (3:2:6gdeGde | 
[V:2] (3:2:6E,B,=D_ADB, (3:2:6E,B,DADB, (3:2:6E,B,_DADB, (3:2:6E,B,DEDB, | 
[V:1] (3:2:6aAcEAc (3:2:6eAcEAc (3:2:6eAcEAc (3:2:6eAcEAc | 
[V:2] (3:2:6A,,E,A,CA,E, (3:2:6A,,E,A,CA,E, (3:2:6A,,E,A,CA,E, (3:2:6A,,E,A,CA,E, | 
[V:1] (3:2:6fBdFBd (3:2:6eBdEBd (3:2:6c'BdEBd (3:2:6gBdEBd | 
[V:2] (3:2:6A,,E,G,DG,E, (3:2:6A,,E,G,DG,E, (3:2:6A,,E,G,DG,E, (3:2:6A,,E,G,DG,E, | 
[V:1] (3:2:6aAcEAc (3:2:6eAcEAc (3:2:6eAcEAc (3:2:6eAcEAc | 
[V:2] (3:2:6A,,E,A,CA,E, (3:2:6A,,E,A,CA,E, (3:2:6A,,E,A,CA,E, (3:2:6A,,E,A,CA,E, | 
[V:1] (3:2:6fBdEBd (3:2:6eBdEBd (3:2:6f'BdEBd (3:2:6gBdEBd | 
[V:2] (3:2:6A,,E,G,DG,E, (3:2:6A,,E,G,DG,E, (3:2:6A,,E,G,DG,E, (3:2:6A,,E,G,DG,E, | 
[V:1] (3:2:6aAcEAc (3:2:6eAcEAc (3:2:6fAcEAc (3:2:6eAcEAc | 
[V:2] (3:2:6A,,E,A,CA,E, (3:2:6A,,E,A,CA,E, (3:2:6A,,E,A,CA,E, (3:2:6A,,E,A,CA,E, | 
[V:1] (3:2:6dEADEA (3:2:6cEACEA (3:2:6dEADEA (3:2:6cEACEA | 
[V:2] (3:2:6E,,A,,E,A,E,A,, (3:2:6E,,A,,E,A,E,A,, (3:2:6E,,A,,E,A,E,A,, (3:2:6E,,A,,E,A,E,A,, | 
[V:1] (3:2:6BCEB,CE (3:2:6ACEA,CE (3:2:6BCEB,CE (3:2:6ACEA,CE | 
[V:2] (3:2:6A,,,E,,A,,E,A,,E,, (3:2:6A,,,E,,A,,E,A,,E,, (3:2:6A,,,E,,A,,E,A,,E,, (3:2:6A,,,E,,A,,E,A,,E,, | 
[V:1] (3:2:6BCEB,CE (3:2:6ACEA,CE (3:2:6BCEB,CE (3:2:6ACEA,CE | 
[V:2] (3:2:6A,,,E,,A,,E,A,,E,, (3:2:6A,,,E,,A,,E,A,,E,, (3:2:6A,,,E,,A,,E,A,,E,, (3:2:6A,,,E,,A,,E,A,,E,, | 
[V:1] (3z C,E,(3A,CE (3:2:6Aceac'e' (3:2:6a'e'c'aec (3:2:6Aceac'e' | 
[V:2] (3:2:6A,,,E,,A,,C,E,A,[K:clef=treble] (3:2:6CEAcea (3:2:6c'aecAE (3:2:6A,EAcea | 
[V:1] (3:2:6a'e'c'aec (3:2:6Aceac'e' (3:2:6a'e'c'aec (3:2:6Aceac'e' | 
[V:2] (3:2:6c'aecAE (3:2:6A,EAcea (3:2:6c'aecAE (3:2:6A,EAcea | 
[V:1] (3:2:6a'e'c'aec (3:2:6Acac'ac (3:2:6Acac'ac (3:2:6Acac'ac | 
[V:2] (3:2:6c'aecAE (3:2:6A,EAeAE (3:2:6A,EAeAE (3:2:6A,EAeAE | 
[V:1] (3:2:6Acac'ac (3:2:6Acac'ac (3:2:6Acac'ac (3:2:6Acac'ac | 
[V:2] (3:2:6A,EAeAE (3:2:6A,EAeAE (3:2:6A,EAeAE (3:2:6A,EAeAE | 
[V:1] .A4.[a'4a4]z4[c4E4] | 
[V:2] .A,4[K:clef=bass].!arpeggio![C4E,4A,,4]z4{/=D,,E,,}!trill!E,,4 | 
[V:1] !arpeggio![A16C16] |]  
[V:2] !arpeggio![E,16A,,16A,,,16] |]
